!!!COM: Palestrina, Giovanni Perluigi da
!!!OPR: Missa O sacrum convivium
!!!OMD: Credo
!!!OTL: Et unam sanctam
**kern	**kern	**kern	**kern	**kern
*Ibass	*Itenor	*Itenor	*Icalto	*Icant
!Bassus	!Tenor 2	!Tenor 1	!Altus	!Cantus
*clefF4	*clefGv2	*clefGv2	*clefG2	*clefG2
*k[b-]	*k[b-]	*k[b-]	*k[b-]	*k[b-]
*F:ion	*F:ion	*F:ion	*F:ion	*F:ion
*M4/2	*M4/2	*M4/2	*M4/2	*M4/2
=158	=158	=158	=158	=158
0F	1F	1c	1f	1a
.	2r	2r	2r	2r
.	2c	2F	2f	2a
=159	=159	=159	=159	=159
0r	2c	2F	2f	2a
.	2c	2F	2f	2a
.	1d	1B-	1f	1b-
=160	=160	=160	=160	=160
1r	2c	2A	2f	2cc
.	2f	2B-	2f	2dd
1C	2f	2.G	2.g	2.cc
.	4e	.	.	.
.	4d	4G	4g	4cc
=161	=161	=161	=161	=161
2C	2e	2c	2g	1cc
2C	2e	2c	2g	.
2.F	2f	2c	2.a	2r
.	2F	2A	.	2cc
4F	.	.	4a	.
=162	=162	=162	=162	=162
2E	2G	2.c	2g	2cc
2F	2F	.	2a	2cc
.	.	4c	.	.
2D	2A	1d	2f	2.ff
2D	2B	.	2d	.
.	.	.	.	4ff
=163	=163	=163	=163	=163
2C	2c	0r	2g	2ee
2c	2F	.	2a	2ff
2c	2G	.	2.g	2dd
2B	2G	.	.	2dd
.	.	.	4f	.
=164	=164	=164	=164	=164
1c	1g	2r	1e	1cc
.	.	2c	.	.
1F	1r	2c	1f	1a
.	.	2c	.	.
=165	=165	=165	=165	=165
2F	2r	2.f	1r	2a
2F	2f	.	.	2a
.	.	4e	.	.
2B-	2f	4d	2r	1dd
.	.	4c	.	.
2B-	2d	2B-	2f	.
=166	=166	=166	=166	=166
2A	4f	2F	2f	2cc
.	4e	.	.	.
2B-	4d	1f	2f	1dd
.	4c	.	.	.
1G	1B-	.	2b-	.
.	.	2e	[2b-	2ee
=167	=167	=167	=167	=167
1F	2r	2d	2b-]	2.ff
.	2c	2c	2a	.
.	.	.	.	4ee
1r	2d	1B-	1b-	1dd
.	[2f	.	.	.
=168	=168	=168	=168	=168
1r	2f]	1c	1g	[0cc
.	2e	.	.	.
2r	1f	1F	2f	.
[2F	.	.	[2a	.
=169	=169	=169	=169	=169
2F]	2.c	0r	2a]	1cc]
2C	.	.	2e	.
.	4B-	.	.	.
2D	2A	.	2f	2r
2E	2G	.	2g	[2cc
=170	=170	=170	=170	=170
2.F	2c	2r	2.a	2cc]
.	2c	1c	.	2f
4F	.	.	4a	.
2F	1r	.	2a	2cc
2E	.	2G	2g	2cc
=171	=171	=171	=171	=171
1D	1r	2A	1.f	1dd
.	.	2B	.	.
1C	2r	2.c	.	2g
.	[2g	.	4e	2cc
.	.	4c	4d	.
=172	=172	=172	=172	=172
0r	2g]	2c	2e	2cc
.	2d	2B-	2.f	2.dd
.	2e	1A	.	.
.	.	.	4e	4cc
.	2f	.	2c	[2cc
=173	=173	=173	=173	=173
1r	1.g	1G	1d	2cc]
.	.	.	.	2b
2r	.	1c	2.e	2cc
[2c	2g	.	.	[2cc
.	.	.	4f	.
=174	=174	=174	=174	=174
2c]	2g	0r	2e	2cc]
2F	2f	.	1d	2a
2G	1e	.	.	2b-
2A	.	.	2c#	2a
=175	=175	=175	=175	=175
2.B-	2d	2r	1d	1f
.	1d	1f	.	.
4B-	.	.	.	.
2B-	.	.	2.f	1r
2A	2c	2c	.	.
.	.	.	4f	.
=176	=176	=176	=176	=176
1G	1B-	2d	1g	1r
.	.	2e	.	.
1F	1c	2.f	2a	2r
.	.	.	2a	[2cc
.	.	4f	.	.
=177	=177	=177	=177	=177
0r	2r	2f	2a	2cc]
.	2c	2e	1cc	2g
.	2f	1d	.	2a
.	[2f	.	2b-	2b-
=178	=178	=178	=178	=178
0r	2f]	1c	2a	2.cc
.	2e	.	2g	.
.	.	.	.	4cc
.	2c	2A	2a	2cc
.	2d	2B-	[2g	2b-
=179	=179	=179	=179	=179
0r	2e	0c	2g]	1a
.	2f	.	1f	.
.	2g	.	.	1g
.	[2c	.	2e	.
=180	=180	=180	=180	=180
0F	2c]	1A	1f	0cc
.	2c	.	.	.
.	2.f	1A	1c	.
.	4e	.	.	.
=181	=181	=181	=181	=181
1BB-	4d	1B-	1f	1dd
.	4c	.	.	.
.	2B-	.	.	.
1F	2c	1A	[1f	1cc
.	2c	.	.	.
=182	=182	=182	=182	=182
1r	4d	0r	2f]	2.a
.	4e	.	.	.
.	4f	.	2f	.
.	4d	.	.	4b-
2r	2e	.	2g	1cc
2F	2f	.	2a	.
=183	=183	=183	=183	=183
4G	1d	0r	4b-	1r
4A	.	.	4a	.
4B-	.	.	2.g	.
4G	.	.	.	.
2A	2c	.	.	2r
.	.	.	4f	.
2B-	2d	.	[2f	2f
=184	=184	=184	=184	=184
2G	1B-	1r	2f]	4g
.	.	.	.	4a
2G	.	.	2e	4b-
.	.	.	.	4g
1F	2c	2r	1f	2a
.	2A	2c	.	2cc
=185	=185	=185	=185	=185
0r	2G	4d	1r	2b-
.	.	4e	.	.
.	2F	4f	.	2a
.	.	4d	.	.
.	2c	2e	2r	2g
.	2F	2f	2c	[2cc
=186	=186	=186	=186	=186
1r	1G	2d	1g	2cc]
.	.	2d	.	2b
[1C	1r	2e	4g	[1cc
.	.	.	4f	.
.	.	2c	4e	.
.	.	.	4d	.
=187	=187	=187	=187	=187
1C]	1c	1g	2e	1cc]
.	.	.	2e	.
1G	1B	2g	1d	2r
.	.	2d	.	[2g
=188	=188	=188	=188	=188
1C	2c	4e	1g	2g]
.	.	4f	.	.
.	2c	4g	.	2.cc
.	.	4e	.	.
2r	1d	2f	1r	.
.	.	.	.	8b
.	.	.	.	8a
2G	.	2g	.	2b
=189	=189	=189	=189	=189
4A	1c	2e	1r	2cc
4B-	.	.	.	.
4c	.	2e	.	2cc
4A	.	.	.	.
2B-	1r	1d	2r	4dd
.	.	.	.	4ee
2d	.	.	2f	4ff
.	.	.	.	4dd
=190	=190	=190	=190	=190
2c	2r	0r	4g	2ee
.	.	.	4a	.
2B-	2d	.	4b-	1dd
.	.	.	4g	.
1c	1e	.	2a	.
.	.	.	[2g	[2cc
=191	=191	=191	=191	=191
1d	1f	0r	4g]	2cc]
.	.	.	4f	.
.	.	.	1f	2b
2c	[1g	.	.	[1cc
[2c	.	.	4e	.
.	.	.	4d	.
=192	=192	=192	=192	=192
4c]	2g]	2.c	1e	1cc]
4B-	.	.	.	.
4A	2c	.	.	.
4G	.	4B-	.	.
2G	[1c	2A	2f	2r
2E	.	2G	2g	[2cc
=193	=193	=193	=193	=193
1F	1c]	4F	2a	4cc]
.	.	4G	.	4b-
.	.	4A	2.f	2a
.	.	4B-	.	.
1C	2r	1c	.	1g
.	.	.	8e	.
.	.	.	8d	.
.	2c	.	2e	.
=194	=194	=194	=194	=194
2r	4c	1F	[0f	1a
.	4B-	.	.	.
2.F	4A	.	.	.
.	4G	.	.	.
.	1F	2.f	.	1a
4E	.	.	.	.
4D	.	.	.	.
4C	.	4e	.	.
=195	=195	=195	=195	=195
2BB-	2.f	2d	0f]	2b-
2AA	.	2c	.	2cc
.	4e	.	.	.
1BB-	4d	1B-	.	1dd
.	4c	.	.	.
.	[2B-	.	.	.
=196	=196	=196	=196	=196
[0F	2B-]	[0c	[0f	[0cc
.	4A	.	.	.
.	4G	.	.	.
.	1A	.	.	.
=197	=197	=197	=197	=197
0F]	0A	0c]	0f]	0cc]
==	==	==	==	==
*-	*-	*-	*-	*-
!!!CDT: 1525/^1526/-1594/2/2
!!!OCY: Italia
!!!AGN: Mass (Parody)
!!!AST: renaissance, vocal
!!!ASW: Motet (Morales)
!!!PWK: Masses, Book 8
!!!RNB: Cadence finals: C
!!!YOR: Le Opere Complete, v. 24, p. 227
!!!YOO: Rome, Italy: Fratelli Scalera
!!!END: 1992//
!!!EED: John Miller
!!!YEC: Copyright 2000, John Miller
!!!YEN: United States of America
!!!YEM: Rights to all derivative electronic formats reserved.
!!!YEM: Refer to licensing agreement for further details.
!!!YEM: This file must be accompanied by the licensing agreement.
!!!YEM: A copy of the licensing agreement may be found at http://www.music-cog.ohio-state.edu/HumdrumDatabases/Palestrina/license.txt
!!!EMD: converted to Humdrum by Bret Aarden
